X:1
T:Hor che vicin mi sento
T:Domenico Obizzi
T:Arietta
T:Source : Madrigali et arie a voce sola---Libro I ---Venetia---A.Vincenti---1627. Editor : André Vierendeels (28/02/16).
T:Notes : Original clefs : C1, F4 Editorial accidentals above the staff Dotted brackets indicata black notes Note values have been halved Notation in the original print : "Alfabeto d'ariette per la Chitarra alla Spagnola", realised by the editor
T:Hor che vicin mi sento
T:©
T:©
C:Domenico Obizzi
Z:©
%%score 1 { ( 2 3 ) | 4 }
L:1/8
Q:1/4=90
M:3/2
K:C
V:1 treble nm="Soprano" snm="S"
V:2 treble nm="BC" snm="BC"
V:3 treble 
V:4 bass 
V:1
 c4 A2 c2 B2 B2 | A4 G4 E2 G2 | F4 F2 E2 D4 | C12 :: e4 c2 e2 d2 d2 | c4 B4 G2 B2 | A2 G4 A2 F4 | %7
w: Hor che vi- cin mi|sen- to, cru- da|Fil- li'à mo- ri-|re,|al mio lun- go mar-|ti- re, al mio|mal, al mio duo-|
w: Al- tro pre- mio non|bra- mo, a miei|tan- ti mar- ti-|ri,|a miei tan- ti so-|spi- ri, ch'un sol|de ba- ci tuo-|
w: E tu, Fil- li cru-|de- le, es- ser|vuoi co- s'in- gra-|ta,|es- ser vuoi si spi-|cta- ta, che ne-|ghi'un ba- cio'an- co-|
w: Mo- ro si mo- ro,|Fil- li, al- men|ba- cia- mi pri-|a,|Ch'io mo- ra'o vi- ta|mi- a, che mo-|ri- ro con- ten-|
 E6 A2 ^G4 | A4 d2 c2 B4 | z2 B2 d2 c2 B4 | A12 :| %11
w: lo, non chieg-|go'al- tra mer- cè|ch'un ba- cio so-|lo.|
w: i, sol per|po- ter mo- rir|con- ten- to po-|i.|
w: ra, sol per|che las- so di-|spe- ra- t'io mo-|ra.|
w: to, e ch'al-|tro'è'un ba- cio'ohi- me|ch'un suon di ven-|to.|
V:2
 A8 B4 | c8 G4 | A2 B4 G6 | G12 :: c8 B4 | A4 G4 E4 | F2 G4 E2 A4 | c8 B4 | A8 ^G4 | %9
 A2 B2 d2 A2 B4 | c12 :| %11
V:3
 E8 G4 | A2 F2 E4 E4 | F2 D4 C4 B,2 | C12 :: G8 D4 | E4 B,8 | C8 F4 | E8 E4 | F4 D2 A,2 B,4 | %9
 C2 D2 F2 A2 ^G4 | E12 :| %11
V:4
 A,,6 A,,2 E,2 E,2 | F,2 C,4 C,2 C,4 | F,2 G,4 G,2 G,,4 | C,12 :: C,6 C,2 G,4 | A,2 E,4 E,2 E,4 | %6
 F,2 C,4 C,2 D,4 | A,,2 A,,4 A,,2 E,4 | F,2 D,4 D,2 E,4 | F,2 D,4 D,2 E,4 | A,,12 :| %11

